X:1
T:Title
%%score { ( 1 3 ) | ( 2 4 ) }
L:1/8
M:2/2
K:C
V:1 treble nm="Grand Piano"
V:3 treble 
V:2 bass 
V:4 bass 
V:1
 z4 z2 E2 | E4 E2 E2 | [G,E]2 D2 C2 C2 | D4 F2 F2 | E6 E2 | [^G,DE]4 [G,DE]2 [G,DE]2 | %6
 [A,A]2- [A,EA]2 [B,E^G]2 [A,EA]2 | [Fd]4 [Ec]2 [DB]2 | [A,CA]6 [^CGA]2 | [D^FA]4 [CFA]2 [CFA]2 | %10
 [B,^FB]4 [B,EG]2 [B,GB]2 | [EGc]4 [D^FB]2 [DFA]2 | [Dd]4- [DGd]2 d2 | d4 c2 d2 | %14
 e2 c2 [CEG]2[K:bass] [G,CE]2 | [A,CE]4 [D,CD]2 [F,B,D]2 | [E,C]8 | [G,CE]8 | [CDA]8 | %19
 [B,DG]4 [B,_EG]4 | [CEG]6 [G,CE][G,CE] | [^G,DE]4 [G,DE]2 [G,DE]2 | .[Cc]4 [CEA]2 [G,CE]2 | %23
 [CFA]4 [B,EG]2 [B,DG]2[Q:1/4=118][Q:1/4=116][Q:1/4=114][Q:1/4=113][Q:1/4=111][Q:1/4=109][Q:1/4=107][Q:1/4=105][Q:1/4=103][Q:1/4=101][Q:1/4=99][Q:1/4=98][Q:1/4=96][Q:1/4=94][Q:1/4=92] | %24
[M:3/4] [CEG]6 |] %25
V:2
 z4 z2 [C,G,C]2 | [C,G,C]4 [C,G,C]2 [C,G,C]2 | z2 F,2 [A,,E,]2 [E,G,]2 | [F,A,]4 [D,A,C]2 [G,B,]2 | %4
 [C,G,C]6 [C,G,C]2 | B,,4 B,,2 B,,2 | A,,2 C,2 D,2 C,2 | [B,,A,]4 [E,A,]2 [E,^G,]2 | A,,6 A,2 | %9
 D,4 D,2 D,2 | z2 z A =E,2 D,2 | C,4 C,2 C,2 | B,,6[K:treble] [G,B,F]2 | %13
 [^G,CF]4 [G,C^F]2 [G,CF]2 | [G,CG]4[K:bass] G,,2 G,,2 | ^F,,4 G,,2 G,,2 | C,8 | C,8 | ^F,,8 | %19
 G,,4 G,,4 | C,6 C,C, | B,,4 B,,2 B,,2 | z2[K:treble] B2[K:bass] A,,2 C,2 | F,,4 G,,2 G,,2 | %24
[M:3/4] C,6 |] %25
V:3
 x8 | x8 | B,4 z4 | x8 | x8 | x8 | .C4 z4 | x8 | x8 | x8 | x8 | x8 | A4 z4 | x8 | x6[K:bass] x2 | %15
 x8 | x8 | x8 | x8 | x8 | x8 | x8 | x8 | x8 |[M:3/4] x6 |] %25
V:4
 x8 | x8 | G,,4 z4 | x8 | x8 | x8 | x8 | x8 | x8 | x8 | _E,4 z4 | x8 | x6[K:treble] x2 | x8 | %14
 x4[K:bass] x4 | x8 | x8 | x8 | x8 | x8 | x8 | x8 | [A,,A,]4[K:treble][K:bass] z4 | x8 | %24
[M:3/4] x6 |] %25

